Papirus/64x64/apps/kdevelop.svg

<?xml version="1.0" encoding="UTF-8" standalone="no"?>
<svg xmlns="http://www.w3.org/2000/svg" height="64" width="64" version="1">
 <path style="opacity:0.2;enable-background:new" d="m 5.1323282,23.48513 -0.2148438,0.371107 c -0.3156057,0.55801 -0.1780092,1.332024 0.3086055,1.750031 l 4.4374792,3.89407 C 9.7084979,28.887027 9.772459,28.279396 9.8627906,27.676085 L 5.2261079,23.606012 c -0.039197,-0.03366 -0.059137,-0.0831 -0.093752,-0.121102 z m 53.7349588,0 c -0.03458,0.038 -0.0546,0.08742 -0.09374,0.121103 l -4.636883,4.070472 c 0.08966,0.603311 0.153983,1.210942 0.199223,1.824253 l 4.43768,-3.89467 c 0.486008,-0.418007 0.622611,-1.192021 0.308605,-1.750031 L 58.866167,23.48425 Z M 9.6444088,32.001282 c -0.01656,0.332246 -0.042969,0.661832 -0.042969,1.000018 0,0.507249 0.026257,1.005258 0.062501,1.500027 L 9.8631627,34.325544 C 9.7485606,33.55953 9.6835594,32.785516 9.6443587,32.001502 Z m 44.7107982,0 c -0.03898,0.783814 -0.103582,1.558728 -0.218744,2.324242 l 0.199223,0.175783 c 0.03622,-0.494769 0.0625,-0.992778 0.0625,-1.500027 0,-0.338186 -0.02624,-0.667772 -0.04296,-1.000018 z M 5.1323282,40.517434 c -0.395007,0.434008 -0.505009,1.11602 -0.2148038,1.628029 l 5.6016996,9.711174 c 0.324806,0.55001 1.055779,0.823294 1.66019,0.613291 l 5.820304,-1.970035 c 1.748831,1.400025 3.743267,2.541045 5.863305,3.37106 l 1.179701,5.992307 C 25.162726,60.489271 25.758216,60.992 26.398228,61 l 11.1994,0 c 0.640011,-0.008 1.239402,-0.510729 1.359404,-1.13674 l 1.179701,-5.992307 c 2.120038,-0.830015 4.113273,-1.971135 5.863305,-3.37106 l 5.816504,1.968795 c 0.60401,0.210003 1.338083,-0.06328 1.664089,-0.613291 l 5.6017,-9.711174 c 0.288705,-0.513069 0.181123,-1.195281 -0.214844,-1.628929 l -5.386896,9.339967 c -0.326006,0.55001 -1.060079,0.823295 -1.664089,0.613291 l -5.820104,-1.970035 c -1.750032,1.400025 -3.743267,2.541045 -5.863305,3.37106 l -1.179701,5.992307 c -0.120002,0.626011 -0.719393,1.12874 -1.359404,1.13674 l -11.1994,0 c -0.640012,-0.008 -1.235482,-0.510729 -1.355504,-1.13674 l -1.178021,-5.992107 c -2.120038,-0.830015 -4.114074,-1.972035 -5.862905,-3.37206 l -5.820504,1.968795 c -0.604411,0.210004 -1.335384,-0.06328 -1.66019,-0.613291 L 5.1307682,40.515054 Z"/>
 <path d="m 26.268705,4.0007647 c -0.59201,0.064601 -1.118019,0.5496098 -1.226021,1.1368203 l -1.180021,5.996107 c -2.120038,0.829415 -4.114074,1.967235 -5.862905,3.36726 l -5.820504,-1.968835 c -0.604411,-0.208404 -1.335424,0.0624 -1.66023,0.613411 l -5.6014996,9.711573 c -0.3156057,0.55801 -0.1780032,1.332024 0.3086055,1.750032 l 4.6366827,4.070072 c -0.1632029,1.09002 -0.2616046,2.188039 -0.2616046,3.32406 0,1.13602 0.098402,2.234039 0.2616046,3.324059 l -4.6366827,4.070072 c -0.4864087,0.418008 -0.6242112,1.192022 -0.3086055,1.750032 l 5.6014996,9.712173 c 0.324806,0.55001 1.055819,0.822015 1.66023,0.612011 l 5.820504,-1.968035 c 1.748831,1.400025 3.742867,2.542045 5.862905,3.37206 l 1.180021,5.992107 c 0.120002,0.626011 0.716012,1.12802 1.356024,1.13602 l 11.1982,0 c 0.640011,-0.008 1.240022,-0.510009 1.360024,-1.13602 l 1.180021,-5.992107 c 2.120038,-0.830015 4.114073,-1.972035 5.864105,-3.37206 l 5.816104,1.968035 c 0.60401,0.210004 1.338023,-0.062 1.664029,-0.612011 l 5.6021,-9.712173 c 0.314006,-0.55801 0.178003,-1.332024 -0.310005,-1.750032 l -4.636083,-4.070072 c 0.164003,-1.09002 0.262005,-2.188039 0.262005,-3.324059 0,-1.136021 -0.100002,-2.23404 -0.262005,-3.32406 l 4.636083,-4.070072 c 0.486008,-0.418008 0.624011,-1.192022 0.310005,-1.750032 l -5.6021,-9.711573 c -0.326006,-0.55081 -1.060019,-0.821815 -1.664029,-0.613411 l -5.816104,1.968835 c -1.750032,-1.400025 -3.744067,-2.537845 -5.864105,-3.36726 L 38.956932,5.137585 C 38.83693,4.5101738 38.236919,4.0093649 37.596908,4.0007647 l -11.1982,0 c -0.044,-0.00102 -0.086,-0.00102 -0.130003,0 z" style="fill:#6eaa36;enable-background:new"/>
 <path style="opacity:0.2;fill:#000000;fill-opacity:1;enable-background:new" d="m 29.000107,19.999518 0,9.000161 8.000143,-9.000161 8.000143,1.000018 L 33.000179,33.999768 45.000393,45.999983 37.00025,47 l -8.000143,-8.000142 0,7.000125 L 23,47 23,20.999536 29.000107,19.999518 Z"/>
 <path d="m 29.000107,18.999518 0,9.000161 8.000143,-9.000161 8.000143,1.000018 L 33.000179,32.999768 45.000393,44.999983 37.00025,46 l -8.000143,-8.000142 0,7.000125 L 23,46 23,19.999536 29.000107,18.999518 Z" style="fill:#ffffff;enable-background:new"/>
 <path style="fill:#ffffff;enable-background:new;fill-opacity:1;opacity:0.2" d="M 26.269531 4 C 25.677521 4.064601 25.150971 4.5495082 25.042969 5.1367188 L 23.863281 11.132812 C 21.743243 11.962228 19.748831 13.099975 18 14.5 L 12.179688 12.53125 C 11.575276 12.322846 10.844337 12.595473 10.519531 13.146484 L 4.9179688 22.857422 C 4.7167854 23.213126 4.7172787 23.65012 4.8574219 24.033203 C 4.8798601 23.974389 4.8867783 23.910615 4.9179688 23.855469 L 10.519531 14.144531 C 10.844337 13.59352 11.575276 13.322846 12.179688 13.53125 L 18 15.5 C 19.748831 14.099975 21.743243 12.962227 23.863281 12.132812 L 25.042969 6.1367188 C 25.150971 5.5495082 25.677521 5.0626479 26.269531 4.9980469 C 26.313534 4.9970269 26.354437 4.9970269 26.398438 4.9980469 L 37.597656 4.9980469 C 38.237667 5.0066471 38.837029 5.5093075 38.957031 6.1367188 L 40.136719 12.132812 C 42.256757 12.962227 44.251921 14.099975 46.001953 15.5 L 51.816406 13.53125 C 52.420416 13.322846 53.154463 13.593721 53.480469 14.144531 L 59.083984 23.855469 C 59.114342 23.909416 59.120576 23.971828 59.142578 24.029297 C 59.281317 23.647086 59.283484 23.211947 59.083984 22.857422 L 53.480469 13.146484 C 53.154463 12.595674 52.420416 12.322846 51.816406 12.53125 L 46.001953 14.5 C 44.251921 13.099975 42.256757 11.962227 40.136719 11.132812 L 38.957031 5.1367188 C 38.837029 4.5093075 38.237667 4.0086002 37.597656 4 L 26.398438 4 C 26.354437 3.99898 26.313534 3.99898 26.269531 4 z M 9.7578125 29.582031 C 9.6671513 30.377226 9.6015625 31.178236 9.6015625 32.001953 C 9.6015625 32.17056 9.6168684 32.332969 9.6210938 32.5 C 9.6453909 31.542112 9.7243674 30.603576 9.8632812 29.675781 L 9.7578125 29.582031 z M 54.242188 29.583984 L 54.136719 29.675781 C 54.274985 30.606089 54.352638 31.547199 54.376953 32.507812 C 54.381299 32.338163 54.398438 32.173228 54.398438 32.001953 C 54.398438 31.178945 54.33271 30.37851 54.242188 29.583984 z M 9.7578125 35.419922 L 5.2265625 39.394531 C 4.7877514 39.771635 4.6518478 40.432148 4.8574219 40.96875 C 4.9371318 40.750873 5.0502158 40.546079 5.2265625 40.394531 L 9.8632812 36.324219 C 9.8184152 36.024561 9.7921858 35.721412 9.7578125 35.419922 z M 54.242188 35.419922 C 54.207742 35.721412 54.181805 36.024561 54.136719 36.324219 L 58.773438 40.394531 C 58.950836 40.546483 59.062918 40.752141 59.142578 40.970703 C 59.348454 40.433742 59.214265 39.772127 58.773438 39.394531 L 54.242188 35.419922 z"/>
</svg>

<?xml version="1.0" encoding="UTF-8" standalone="no"?>
<svg xmlns="http://www.w3.org/2000/svg" height="64" width="64" version="1">
 <path style="enable-background:new;fill:#6eaa36" d="m26.269 4.0008c-.59201.064601-1.118.54961-1.226 1.1368l-1.18 5.9961c-2.12.82942-4.1141 1.9672-5.8629 3.3673l-5.8205-1.9688c-.60441-.20840-1.3354.0624-1.6602.61341l-5.6015 9.7116c-.31561.55801-0.178 1.332.30861 1.75l4.6367 4.0701c-.16320 1.09-.26160 2.188-.26160 3.3241 0 1.136.098402 2.234.26160 3.3241l-4.6367 4.0701c-.48641.41801-.62421 1.192-.30861 1.75l5.6015 9.7122c.32481.55001 1.0558.82202 1.6602.61201l5.8205-1.968c1.7488 1.4 3.7429 2.542 5.8629 3.3721l1.18 5.9921c0.12.62601.71601 1.128 1.356 1.136h11.198c.64001-.008 1.24-.51001 1.36-1.136l1.18-5.9921c2.12-.83002 4.1141-1.972 5.8641-3.3721l5.8161 1.968c.60401 0.21 1.338-.062 1.664-.61201l5.6021-9.7122c.31401-.55801 0.178-1.332-0.31-1.75l-4.6361-4.0701c0.164-1.09 0.262-2.188 0.262-3.3241 0-1.136-0.1-2.234-0.262-3.3241l4.6361-4.0701c.48601-.41801.62401-1.192 0.31-1.75l-5.6021-9.7116c-.32601-.55081-1.06-.82182-1.664-.61341l-5.8161 1.9688c-1.75-1.4-3.7441-2.5378-5.8641-3.3673l-1.18-5.9964c-.120-.6274-.720-1.1282-1.36-1.1368h-11.198c-.044-.00102-.086-.00102-0.13 0z"/>
 <path style="opacity:.2;enable-background:new;fill:#000000" d="m29 20v9.0002l8.0001-9.0002 8.0001 1-12 13 12 12-8 1-8.0001-8.0001v7.0001l-6 1v-26l6-1z"/>
 <path style="enable-background:new;fill:#ffffff" d="m29 19v9.0002l8.0001-9.0002 8.0001 1-12 13 12 12-8 1-8.0001-8.0001v7.0001l-6 1v-26l6-1z"/>
 <path style="opacity:.2;enable-background:new;fill:#ffffff" d="m26.27 4c-.592.0646-1.119.5495-1.227 1.1367l-1.18 5.9963c-2.12.829-4.114 1.967-5.863 3.367l-5.82-1.969c-.605-.208-1.336.064-1.66.615l-5.602 9.711c-.2012.356-.2007.793-.0606 1.176.0223-.058.0297-.121.0606-.176l5.602-9.711c.324-.551 1.055-.821 1.66-.613l5.82 1.969c1.749-1.4 3.743-2.538 5.863-3.367l1.18-5.9963c.108-.5872.635-1.0721 1.227-1.1367.044-.0011.084-.0011.128 0h11.2c.640.0086 1.239.5093 1.359 1.1367l1.18 5.9963c2.12.829 4.115 1.967 5.865 3.367l5.814-1.969c.604-.208 1.338.063 1.664.613l5.604 9.711c.030.054.037.115.059.172.138-.382.140-.817-.059-1.172l-5.604-9.711c-.326-.550-1.06-.823-1.664-.615l-5.814 1.969c-1.75-1.4-3.745-2.538-5.865-3.367l-1.18-5.9963c-.120-.6274-.719-1.1281-1.359-1.1367h-11.2c-.044-.0010-.084-.0010-.128 0zm-16.514 25.584c-.0905.794-.1543 1.595-.1543 2.418 0 .169.0152.332.0195 0.5.0243-.958.1033-1.896.2422-2.824l-.1074-.094zm44.486.002l-.105.092c.138.929.216 1.87.240 2.83.004-.170.021-.335.021-.506 0-.822-.065-1.622-.156-2.416zm-44.486 5.834l-4.5293 3.975c-.4388.377-.5748 1.037-.3692 1.574.0798-.217.1933-.421.3692-.573l4.6367-4.07c-.0450-0.3-.0730-.604-.1074-.906zm44.488 0c-.034.302-.062.606-.107.906l4.636 4.07c.177.152.290.357.370.575.205-.537.071-1.199-.370-1.576l-4.529-3.975z"/>
 <path style="opacity:.2;enable-background:new" d="m59.143 24.029c-.07963.21938-.19191.42569-.36914.57812l-4.6367 4.0703c.04473.30098.07099.60538.10547.90820l4.5312-3.9785c.43950-0.378.57572-1.0409.36914-1.5781zm-54.285.0039c-.20560.53660-.069851 1.1971.36914 1.5742l4.5293 3.9766c.034428-.30221.062449-.60588.10742-.90625l-4.6372-4.071c-.1765-.151-.2895-.356-.3692-.574zm4.7631 8.469c-.00425.16749-.019531.33093-.019531.5 0 .82334.063713 1.6231.15430 2.418l.10742-.09375c-.1389-.928-.2179-1.866-.2422-2.824zm44.756.0078c-.02453.95511-.10102 1.8912-.24023 2.8164l.10742.09375c.09077-.79484.15430-1.5946.15430-2.418 0-.16645-.01731-.32727-.02148-.49219zm-49.52 8.461c-.14015.38308-.14064.81812.060547 1.1738l5.6016 9.7129c.32481.55001 1.0557.82133 1.6602.61133l5.82-1.967c1.7488 1.4 3.7432 2.5411 5.8633 3.3711l1.1797 5.9922c0.12.62601.71546 1.1287 1.3555 1.1367h11.199c.64001-.008 1.2394-.51071 1.3594-1.1367l1.1797-5.9922c2.12-.83002 4.1152-1.9711 5.8652-3.3711l5.8145 1.9668c.60401 0.21 1.3381-.06132 1.6641-.61133l5.6035-9.7129c.19986-.35516.19807-.78919.05859-1.1719-.02198.05723-.02835.12009-.05859.17383l-5.6035 9.7109c-.32601.55001-1.0601.82328-1.6641.61328l-5.814-1.969c-1.75 1.4-3.7452 2.5411-5.8652 3.3711l-1.1797 5.9922c-.120.626-.719 1.129-1.359 1.137h-11.2c-.640-.008-1.235-.511-1.355-1.137l-1.18-5.992c-2.12-.830-4.114-1.971-5.863-3.371l-5.8203 1.9688c-.60441 0.21-1.3354-.06327-1.6602-.61328l-5.602-9.711c-.030764-.05439-.038302-.11781-.060547-.17578z"/>
</svg>
